X:3696
T:Litchfield Tattoo
O:england
M:4/4
L:1/8
K:G
z2BB|B2AA A2cc|c2BB B2GG|G2F2G2A2|
B6BB|B2AA A2cc|c2BB B2c2|de dc B2A2|
G4:|
B2c2|d3e d2B2|c3d c2A2|B3c B2G2|
A6AB|c2Ac B2G2|A6AB|c2Ac B2G2|
A6Bc|d3e d2B2|c3d c2A2|B3c B2G2|
A6AB|c2Ac B2G2|A6AB|c2Ac B2G2|
A6


